X: 4551
T: Boston Life
R: jig
M: 6/8
K: Gmajor
B,/A,/|:G,B,D GBd|{a}b3 bfa|{a}gfg Bcd|{B}c3 {d}cBc|
DFA (3d/e/d/^cd|(3f/g/f/ef a2g|1 (3f/g/f/ef ABc|ed^c {c}dBG:|2 fed bfa|{f}g3 g2(F||
|:G)Bd gd(B|A)ce {g}a2g|f/g/af ABc|ed^c dBG|
GBd gdB|Ace {g}a2g|1 fed bfa|{f}g3 g2F:|2 f/g/af def|{f}g3 g2||

